X:1
T:Title
%%score { ( 1 3 ) | ( 2 4 ) }
L:1/8
M:4/4
K:Ab
V:1 treble nm="Grand Piano"
V:3 treble 
V:2 bass 
V:4 bass 
V:1
 z4 z2[Q:1/4=100] [CE]2 | [CA][CA][CA][CA] [_CF][=CE][A,C][B,D] | z4 c2 z2 | e6 z2 | B6 E2 | %5
 [CA][CA][CA][CA] [_CF][=CE][A,C][B,D] |[M:3/4] z2 z2 c2 |[M:1/4] d2 |[M:4/4] e6 z2 | %9
[M:3/4] [CEA]6 |[M:1/4] E2 |[M:4/4] e6 z2 |[M:3/4] G6 |[M:1/4] E2 |[M:4/4] d6 z2 | c6 z2 | %16
 [CA][CA][CA][CA] [_CF][=CE][A,C][B,D] | z4 c2 z2 | e6 z2 |[M:3/4] [CEA]6 |] %20
V:2
 z4 z2 [A,,A,]2 | [A,,E,][A,,E,][A,,E,][A,,E,] [A,,A,][A,,A,][A,,E,][A,,E,] | %2
 [A,,A,][A,,A,][C,A,][E,G,E][K:treble] .[A,E]2 B2 | c6 z2 | G6[K:bass] z2 | %5
 [A,,A,][A,,E,][A,,E,][A,,E,] [A,,A,][A,,A,][A,,E,][A,,E,] | %6
[M:3/4] [A,,A,][A,,A,] [C,A,][E,G,E][K:treble] .[A,E]2 |[M:1/4] B2 |[M:4/4] c6[K:bass] z2 | %9
[M:3/4] A,,6 |[M:1/4] z2 |[M:4/4] z [A,C][A,C][A,C] [A,C]2 z2 |[M:3/4] z [B,D] [B,D][B,D] [B,D]2 | %13
[M:1/4] z2 |[M:4/4] z [E,B,][E,B,][E,B,] [E,B,]2 z2 | z A,A,A, A,2 [A,,A,][A,,A,] | %16
 [A,,E,][A,,E,][A,,E,][A,,E,] [A,,A,][A,,A,][A,,E,][A,,E,] | %17
 [A,,A,][A,,A,][C,A,][E,G,E][K:treble] .[A,E]2 B2 | c6[K:bass] z2 |[M:3/4] A,,6 |] %20
V:3
 x8 | x8 | [CE][CF][EA]B z A d2 | z2 E2 E2 c2 | z2 E2 E2 z D | x8 |[M:3/4] [CE][CF] [EA]B z A | %7
[M:1/4] x2 |[M:4/4] z2 E2 E2 [DEG]2 |[M:3/4] x6 |[M:1/4] x2 |[M:4/4] z AAA A2 f2 | %12
[M:3/4] z E EE E2 |[M:1/4] x2 |[M:4/4] z GGG G2 e2 | z EEE E2 [CE][CE] | x8 | %17
 [CE][CF][EA]B z A d2 | z2 E2 E2 [DEG]2 |[M:3/4] x6 |] %20
V:4
 x8 | x8 | x4[K:treble] x4 | z2 A,2 A,2 A2 | z2[K:bass] E,2 E,2 [E,G,]2 | x8 | %6
[M:3/4] x4[K:treble] x2 |[M:1/4] x2 |[M:4/4] z2 A,2 A,2[K:bass] E,2 |[M:3/4] x6 |[M:1/4] x2 | %11
[M:4/4] x8 |[M:3/4] x6 |[M:1/4] x2 |[M:4/4] x8 | x8 | x8 | x4[K:treble] x4 | %18
 z2 A,2 A,2[K:bass] E,2 |[M:3/4] x6 |] %20

